X:720
T: ICH WEISS EIN SCHOENES ENGELSPIEL
N: E2174
O: Europa, Mitteleuropa, Deutschland
R: geistlich, Moral - Lied, Auferstehung
M: 3/2
L: 1/4
K: F
C2 | DEF2G2 | DEF2
F2 | ABc2B2 | c2G2
G2 | ABc2A2 | BAB2G2 | AGA2
G2 | FFA2G2 | DEF2

@@@ Tune index: 5404
